X: 1
T: Bavno Oro
O: Macedonia
P: 2x(AB)CABD2x(EF)
Z: 1997 by John Chambers <jc@trillian.mit.edu> http://trillian.mit.edu/~jc/music/
N:
N: 1. Parts C-F can also be harmonized a 3rd higher.
N: 2. The recording has the long note at the end of C only the first time.
N: 3. Accompaniment should mostly be in 3: bass-chord-chord.
M: 7/8
L: 1/8
K: Dm
"A"\
|: "Dm"[f3a3] [d4f4] | "A"[^c2e2][df] [eg][fa] [eg][df] \
| "Gm"[^c2e2][Bd] "A"[A4^c4]- | [A7^c7]- | [A7^c7] :|
"B"\
|: "Gm"[B2d2][^ce] [dB][A^c] [G2B2] \
| [A^c][B2d2] [ce][df] [e/g/][d/f/][^ce] \
| "Gm"[Bd][Bd][^ce] [dB][Ac] [G2B2] |
| [A^c][B2d2] [ce][df] (3[df][ce][df] \
| [df][eg][df] [^c2e2] [B2d2] \
| ([^c/e/][B/d/][A2c2])- [A4^c4]- | [A7^c7] :|
"C"\
|: "Dm"{^c}dcd ef ed | "A"^c2B AB cd \
| "Gm"^c2B {B}c2 (3BAG | "A"AB2 "Dm"(^cd3) |
| "Dm"{^c}dcd ef ed | "A"^c2B AB cd \
| "Gm"^c2B {B}c2 (3BAG |1 "A"{G}A7 :|2 "A"{G}A7- | A7 |]
P: Repeat A, B
"D"\
K: G
|: "G"cBd c2 BG | "D7"A2G FG AB \
| "G"cBd c2 BG | "D7"A3 {^c}d4 |
|  "G"cBd c2 BG | "D7"A2G FG AB \
| "G"cBd c2 BG |1 "D7"A7 :|2 "A".Az |]
"E"\
K: Dm
|: "(faster)"AB ^cd \
| "A"e2d e(f/g/ f/e/)d | e3 AB ^cd \
| e2d "Gm"^c(d/e/ d/c/)B | "A"A3 :|
"F"\
|: "A"^c(d/e/ d/c/)B \
| ^c2B c(d/e/ d/c/)B \
| ^c2B c(d/e/ d/c/)B \
| ^c2B "Gm"A(B/c/ B/A/)G | "A"A3 :|
